public/images/globe.svg

<svg width="160" height="64" viewBox="0 0 160 64" fill="none" xmlns="http://www.w3.org/2000/svg">
<g clip-path="url(#clip0)">
<g clip-path="url(#clip1)">
<path d="M61.1969 56.23H59.73L55.91 53.0089C55.2682 52.4634 54.3514 52.1257 53.4346 52.1257H48.3616L44.5416 48.8787C43.6248 48.0994 42.3413 47.6319 41.0272 47.6319H39.4992V43.9432V43.8653H44.2971C45.8557 43.8653 47.3837 43.3458 48.4839 42.3847L59.3938 33.1112V32.3579C59.3938 31.111 58.202 30.1239 56.7657 30.1239H54.7181L52.3956 28.1497C51.9066 27.7341 51.0815 28.0199 51.0815 28.6173V33.1891H46.528L42.4329 29.7083L45.3362 27.2406V26.5133C45.3362 25.4223 44.2971 24.5391 43.0136 24.5391H24.0052H18.3515C16.8846 24.5391 15.4789 24.9287 14.287 25.6301L12.9424 26.4353V30.8253C12.9424 31.0331 13.2174 31.111 13.3702 30.9811L15.2955 29.3446C15.9678 28.7732 16.8541 28.4615 17.8014 28.4615H20.2463L25.5026 32.9294V37.3193C25.5026 39.0597 26.3277 40.7482 27.7641 41.9691L29.8422 43.7354L35.5263 48.567C36.6265 49.5021 38.124 50.0217 39.6825 50.0217H41.4245L44.3277 52.4894L42.0968 54.3857C41.4856 54.9052 41.1494 55.5806 41.1494 56.3079V60.1524C41.1494 61.3992 41.7301 62.5941 42.7691 63.4773L45.8557 66.1009V75.6601C45.8557 77.7642 47.1087 79.7384 49.1867 80.8813L50.5008 81.6087V73.4262L64.1001 61.8668V58.6977C64.1001 57.3469 62.786 56.23 61.1969 56.23Z" fill="currentColor" fill-opacity="0.5"/>
<path d="M160.755 26.0677H167.203C168.578 26.0677 169.678 27.0028 169.648 28.1717V28.7692L166.408 31.5227H160.602V34.432C160.602 35.7048 160.021 36.9257 158.952 37.8349L155.743 40.5624L155.407 40.8481L154.031 42.017H149.111V43.4198C149.111 44.3029 148.683 45.1602 147.95 45.7836L145.138 48.1734V50.1216C145.138 51.2905 144.008 52.2516 142.633 52.2516H141.716L134.717 46.3031L127.811 52.1737L123.135 48.2253H121.79H119.896L117.145 45.8875L115.923 46.9265L121.546 51.7061L119.987 53.0309C118.276 54.4596 115.526 54.4596 113.845 53.0309L109.383 49.2384L106.358 47.2902L109.505 44.6147L106.694 42.2248L105.319 41.0559H102.568L100.918 42.4586H96.5477L93.5223 39.887H91.0469L87.288 43.0821L86.3406 42.2768C85.1182 41.2378 85.1182 39.5753 86.3406 38.5362L88.1437 37.0036H90.6496V34.8216L93.1556 32.6916H99.451V30.5875L102.476 28.0159L100.826 26.6132L96.4561 30.3278L96.1505 30.068C95.1114 29.1848 95.1114 27.7561 96.1505 26.8729L99.8788 23.7039H103.24C104.279 23.7039 105.319 24.0675 106.052 24.6909L108.527 26.795H119.498L123.166 23.6779H128.819L132.7 20.3789H140.891C142.296 20.3789 143.641 20.8725 144.619 21.7037L147.155 23.8597H156.14C157.424 23.8597 158.646 24.2753 159.563 25.0546L160.755 26.0677Z" fill="currentColor"/>
<path d="M98.504 47.2914H106.358L109.383 49.2396L107.947 50.4605L115.404 56.7986C116.504 57.7338 116.504 59.2404 115.404 60.1755L111.156 63.7862V74.3845L105.594 79.1122H103.638C101.193 79.1122 99.2069 77.4237 99.2069 75.3456V69.9426L97.9539 68.8776C96.8232 67.9164 96.1814 66.5917 96.1814 65.2409V60.6171H89.1526L83.1934 55.5518V50.1487L89.1526 45.1094H94.1339C95.2952 45.1094 96.3954 45.499 97.2205 46.2004L98.504 47.2914Z" fill="currentColor" fill-opacity="0.5"/>
<path d="M62.3877 19.9888C61.4098 20.8201 61.4098 22.1449 62.3877 22.9501L65.6882 25.7815V27.3141C65.6882 28.535 66.2689 29.7299 67.2774 30.5871L69.2638 32.2756L78.5847 24.3528V20.898C78.5847 19.3914 77.1483 18.1445 75.3453 18.1445H65.4743C64.313 18.1445 63.2434 18.69 62.6628 19.5472L62.3877 19.9888Z" fill="currentColor"/>
</g>
</g>
<defs>
<clipPath id="clip0">
<rect width="160" height="64" fill="white"/>
</clipPath>
<clipPath id="clip1">
<rect width="192.941" height="59" fill="white" transform="translate(9.41211 5)"/>
</clipPath>
</defs>
</svg>

<svg width="160" height="64" fill="none" xmlns="http://www.w3.org/2000/svg"><g clip-path="url(#clip0)"><g clip-path="url(#clip1)"><path fill-rule="evenodd" clip-rule="evenodd" d="M62.388 22.95c-.978-.805-.978-2.13 0-2.961l.275-.442c.58-.857 1.65-1.402 2.811-1.402h9.871c1.803 0 3.24 1.246 3.24 2.753v3.455l-9.321 7.923-1.986-1.689c-1.009-.857-1.59-2.052-1.59-3.273v-1.532l-3.3-2.832zm98.367 3.115h6.448c1.375 0 2.475.935 2.445 2.104v.598l-3.24 2.753h-5.806v2.91c0 1.272-.581 2.493-1.65 3.402l-3.209 2.728-.336.285-1.376 1.17h-4.92v1.402c0 .883-.428 1.74-1.161 2.364l-2.812 2.39v1.948c0 1.169-1.13 2.13-2.505 2.13h-.917l-6.999-5.949-6.906 5.871-4.676-3.948h-3.239l-2.751-2.338-1.222 1.039 5.623 4.78-1.559 1.324c-1.711 1.429-4.461 1.429-6.142 0l-4.462-3.792-1.436 1.22 7.456 6.339c1.101.935 1.101 2.442 0 3.377l-4.247 3.61v10.599l-5.562 4.727h-1.956c-2.445 0-4.431-1.688-4.431-3.766v-5.403l-1.253-1.065c-1.131-.961-1.773-2.286-1.773-3.637v-4.624h-7.029l-5.959-5.065v-5.403l5.96-5.04h4.98c1.162 0 2.262.39 3.087 1.092l1.284 1.09h7.854l3.147-2.675-2.811-2.39-1.375-1.169h-2.751l-1.65 1.403h-4.37l-3.026-2.572h-2.475l-3.759 3.196-.947-.806c-1.223-1.039-1.223-2.701 0-3.74L88.144 37h2.506V34.82l2.506-2.13h6.295v-2.104l3.025-2.572-1.65-1.402-4.37 3.714-.306-.26c-1.038-.883-1.038-2.311 0-3.195l3.729-3.169h3.361c1.04 0 2.079.364 2.812.987l2.475 2.104h10.971l3.668-3.117h5.653l3.881-3.299h8.191c1.405 0 2.75.494 3.728 1.325l2.536 2.156h8.985c1.284 0 2.506.416 3.423 1.195l1.192 1.013zM59.729 56.227h1.467c1.589 0 2.903 1.117 2.903 2.467v3.17L50.5 73.422v8.182l-1.313-.727c-2.078-1.143-3.331-3.117-3.331-5.221v-9.56l-3.087-2.623c-1.039-.883-1.62-2.078-1.62-3.325v-3.845c0-.727.337-1.402.948-1.922l2.23-1.896-2.903-2.468h-1.741c-1.559 0-3.056-.52-4.157-1.455l-5.684-4.831-2.078-1.766c-1.436-1.221-2.261-2.91-2.261-4.65v-4.39l-5.257-4.468H17.8c-.947 0-1.833.312-2.506.883l-1.925 1.637c-.153.13-.428.052-.428-.156v-4.39l1.345-.805a8.023 8.023 0 014.065-1.091h24.662c1.283 0 2.322.883 2.322 1.974v.727l-2.903 2.468 4.095 3.48h4.553v-4.571c0-.598.826-.883 1.315-.468l2.322 1.974h2.048c1.436 0 2.628.988 2.628 2.234v.754l-10.91 9.273c-1.1.961-2.628 1.48-4.187 1.48h-4.798V47.629h1.528c1.314 0 2.598.468 3.515 1.247l3.82 3.247h5.073c.916 0 1.833.338 2.475.883l3.82 3.221zm85.267 12.129v1.558c0 2.078 1.986 3.767 4.431 3.767h4.34l1.436 1.22c.917.78 2.2 1.222 3.514 1.222h3.301v-4.52c0-1.663-.764-3.247-2.139-4.416l-3.209-2.728h-6.999l-4.553 3.87h-.122v.027z" fill="currentColor"/></g></g><defs><clipPath id="clip0"><path fill="#fff" d="M0 0h160v64H0z"/></clipPath><clipPath id="clip1"><path fill="#fff" transform="translate(9.412 5)" d="M0 0h192.941v59H0z"/></clipPath></defs></svg>
